X: 27346
T: Mist-Covered Mountains Of Home, The
R: waltz
M: 3/4
K: Adorian
E2|:"Am" A6|A3 B cd|e2 A3 B|A2 G2 EF|"G" G6|
G3 A B2|B2 A3 B|"G" A2 G2 E2|"Am" c6|"G" d6|
"C" e3 f g2|"G" B2 A3 G|"Am" A3 c e2|"G" d3 c B2|"Am" A B3 "G" G2|"Am" A6:|
|:"Am" e4 Ae|e4 Ae|"G" d2 e2 g2|e3 d BA|"Em" G4 G2|
d4 B2|"Am" e4 e2|"G" d3 c B2|"Am" c6|"G" d6|
"C" e3 f g2|"G" B2 A3 G|"Am" A3 c e2|"G" d3 c B2|"Am" A B3 "G" G2|"Am" A6:|

